X:4104
T:Mazurka du Lally
O:england
R:Mazurka
N:March 1993
M:3/4
C:Andy Hornby
A:Lancaster
K:D
A Bc |d2 dB cd | e2ec BA | \
f2fd ef | gf ed ef | \
d2dB cd | e2 eA de |
|1 fd gf ed | e3 :|2 fa gf ec | d3 \
|: a ^ga | =g2ec eg | f2 dA df |
ec AB cA | de fa ^ga | g2ec eg | \
f2 df af | ef ge ce |1 d3 :|2 d2 A2 F2 ||
|:DF Ad cd | BA GA Bd |cB Ac eg | \
fd fa fd | D2 FA dA | GA Bd BG |\
AB cd ec |1 d2 A2 F2 :|2 d3 |: \
e fd | g2bg2e | fg af ed |e2ge2c | d2f2a2| \
ga bg bg | f2 af df | ef gA Bc | de fg af | \
g2bg2e| fg af df | ef ge ce | d2 a2 f2 | \
gb2g bg | fa2f af | ef ge ce |1 d3 :|2 ef ga bc' | d'3 |]
W:Copyright (C) Andy Hornby


